X: 102
M: 2/4
L: 1/16
K: D
|:\
d4 (fe).d.c | d2A2 A2(ef) | g2f2e2d2 | {d}c2Bc A4 |\
d4 (fe).d.c | d2A2 A2(fg) | a2g2f2e2 | d4 D4 |]|\
d2c2d2B2 | B2A2B2F2 | G2B2 AGFE | D4 D4 ::\
a2z2 f2z2 | d2z2 A2z2 | B2g2e2c2 | (dc).d.e d4 |\
a2z2 f2z2 | d2z2 A2z2 | B2g2e2c2 | d4 D4 :|


